X: 336
T: A Redl
R: barndance
M: 4/4
K: Aminor
|:EA^GA BcBA|e2e2 B2cd|e2e2 B2cd|c2BA B2A^G|A2e2 c2A2|
EA^GA BcBA|e2e2 B2cd|e2e2 B2cd|c2BA B2A^G|1 A2A^G A3E:|2 A2A^G ABce||
|:d2d d2 dcB|d2d d2 dcB|d2c2 B2A2|B2BA ^GABc|d2c2 B2A2|
B2BA ^GABc|d2c2 B2AB|c2BA B2A^G|1 A2A^G ABce:|2 A2A^G ABcd||
|:e2e e2 edc|e2e e2 ed^c|defg agfe|f2e2 f2e2|defg agfe|
f2e2 f2e2|defg fedc|Bcde dcBA|c2BA B2A^G|1 A2 A^G ABcd:|2 A2A^G A3E||

